svg/u1f469_1f3fe_200d_1f9b3.svg

<svg viewBox="0 0 128 128" xmlns="http://www.w3.org/2000/svg">
  <g id="hairGroup_1_">
    <path id="hair_x5F_white_1_" d="M64.57,2.87c-41.01,0-40.68,37.92-40.68,38.52 c0,24.56,1.88,59.25,11.71,72.9c3.9,5.41,11.43,5.71,11.43,5.71L64,119.98l16.97,0.03c0,0,7.53-0.3,11.43-5.71 c9.83-13.65,11.71-48.34,11.71-72.9C104.1,40.79,105.58,2.87,64.57,2.87z" fill="#D6D6D6"/>
    <radialGradient id="hairHighlights_x5F_white_2_" cx="64" cy="58.4385" gradientTransform="matrix(1 0 0 1.1901 0 -11.1113)" gradientUnits="userSpaceOnUse" r="47.5316">
      <stop offset="0.7936" stop-color="#FFFFFF" stop-opacity="0"/>
      <stop offset="1" stop-color="#FFFFFF" stop-opacity="0.5"/>
    </radialGradient>
    <path id="hairHighlights_x5F_white_1_" d="M64.57,2.87 c-41.01,0-40.68,37.92-40.68,38.52c0,24.56,1.88,59.25,11.71,72.9c3.9,5.41,11.43,5.71,11.43,5.71L64,119.98l16.97,0.03 c0,0,7.53-0.3,11.43-5.71c9.83-13.65,11.71-48.34,11.71-72.9C104.1,40.79,105.58,2.87,64.57,2.87z" fill="url(#hairHighlights_x5F_white_2_)"/>
  </g>
  <g id="shirt">
    <linearGradient id="SVGID_1_" gradientUnits="userSpaceOnUse" x1="64" x2="64" y1="94.0067" y2="122.1003">
      <stop offset="0" stop-color="#651FFF"/>
      <stop offset="0.7047" stop-color="#5914F2"/>
      <stop offset="1" stop-color="#530EEB"/>
    </linearGradient>
    <path d="M64.12,94.45h-0.13c-25.65,0.03-51.46,7.55-51.46,25.44v4.14h1.5h1.5h96.93h1.49h1.51v-4.14 C115.46,103.02,89.9,94.45,64.12,94.45z" fill="url(#SVGID_1_)"/>
  </g>
  <g id="face">
    <path id="neck" d="M73.08,90.08H54.91v9.98c0,4.51,3.7,8.17,8.26,8.17h1.65c4.56,0,8.26-3.66,8.26-8.17 v-9.98H73.08z" fill="#7A4C32"/>
    <path id="head" d="M64,14.91c-17.2,0-33.13,12.79-33.13,39.91c0,21.79,13.49,34.67,25.23,38.83 c2.8,0.99,5.5,1.49,7.9,1.49c2.38,0,5.07-0.49,7.85-1.47c11.76-4.14,25.28-17.03,25.28-38.84C97.13,27.7,81.2,14.91,64,14.91z" fill="#A56C43"/>
    <g id="eyebrows">
      <path d="M54.8,49.82c-0.93-1.23-3.07-3.01-7.23-3.01s-6.31,1.79-7.23,3.01c-0.41,0.54-0.31,1.17-0.02,1.55 c0.26,0.35,1.04,0.68,1.9,0.39s2.54-1.16,5.35-1.18c2.81,0.02,4.49,0.89,5.35,1.18s1.64-0.03,1.9-0.39 C55.11,50.99,55.21,50.36,54.8,49.82z" fill="#9E9E9E"/>
      <path d="M87.66,49.82c-0.93-1.23-3.07-3.01-7.23-3.01s-6.31,1.79-7.23,3.01c-0.41,0.54-0.31,1.17-0.02,1.55 c0.26,0.35,1.04,0.68,1.9,0.39s2.54-1.16,5.35-1.18c2.81,0.02,4.49,0.89,5.35,1.18s1.64-0.03,1.9-0.39 C87.96,50.99,88.07,50.36,87.66,49.82z" fill="#9E9E9E"/>
    </g>
    <g id="eyes">
      <ellipse cx="47.57" cy="58.87" fill="#42312C" rx="4.87" ry="5.04"/>
      <ellipse cx="80.43" cy="58.87" fill="#42312C" rx="4.87" ry="5.04"/>
    </g>
    <path id="nose" d="M67.82,68.05c-0.1-0.04-0.21-0.07-0.32-0.08h-6.99c-0.11,0.01-0.21,0.04-0.32,0.08 c-0.63,0.26-0.98,0.91-0.68,1.61s1.69,2.66,4.49,2.66s4.19-1.96,4.49-2.66C68.8,68.97,68.45,68.31,67.82,68.05z" fill="#875334"/>
    <path id="mouth" d="M72.31,76.14c-3.15,1.87-13.46,1.87-16.61,0c-1.81-1.07-3.65,0.57-2.9,2.21 c0.74,1.61,6.37,5.36,11.23,5.36c4.87,0,10.42-3.75,11.16-5.36C75.94,76.71,74.12,75.06,72.31,76.14z" fill="#473530"/>
  </g>
  <g id="hairGroup">
    <path id="hair_x5F_white" d="M64.57,2.87c-41.01,0-40.68,37.92-40.68,38.52c0,7.76,0.19,16.53,0.75,25.32 l6.72-0.02c-0.06-2.92,1.99-20.97,8.08-22.34c22.36-5.02,35.01-16.89,35.01-16.89c3.29,7.19,13.58,14.19,17.27,16.86 c3.03,2.19,3.96,18.55,3.9,22.38h7.71c0-0.05,0.02-0.1,0.02-0.16c0.56-8.75,0.74-17.46,0.74-25.17 C104.1,40.79,105.58,2.87,64.57,2.87z" fill="#D6D6D6"/>
    <radialGradient id="hairHighlights_x5F_white_3_" cx="64.3333" cy="62.463" gradientTransform="matrix(1 0 0 1.2135 0 -13.3328)" gradientUnits="userSpaceOnUse" r="49.788">
      <stop offset="0.7956" stop-color="#FFFFFF" stop-opacity="0"/>
      <stop offset="1" stop-color="#FFFFFF" stop-opacity="0.5"/>
    </radialGradient>
    <path id="hairHighlights_x5F_white" d="M64.57,2.87 c-41.01,0-40.68,37.92-40.68,38.52c0,7.76,0.19,16.53,0.75,25.32l6.72-0.02c-0.06-2.92,1.99-20.97,8.08-22.34 c22.36-5.02,35.01-16.89,35.01-16.89c3.29,7.19,13.58,14.19,17.27,16.86c3.03,2.19,3.96,18.55,3.9,22.38h7.71 c0-0.05,0.02-0.1,0.02-0.16c0.56-8.75,0.74-17.46,0.74-25.17C104.1,40.79,105.58,2.87,64.57,2.87z" fill="url(#hairHighlights_x5F_white_3_)"/>
  </g>
</svg>

<svg viewBox="0 0 128 128" xmlns="http://www.w3.org/2000/svg">
  <defs>
    <linearGradient id="SVGID_1_" gradientUnits="userSpaceOnUse" x1="64" x2="64" y1="94.0067" y2="122.1003">
      <stop offset="0" stop-color="#651FFF"/>
      <stop offset="0.7047" stop-color="#5914F2"/>
      <stop offset="1" stop-color="#530EEB"/>
    </linearGradient>
    <radialGradient id="hairHighlights_x5F_white_2_" cx="64" cy="49.102058" gradientTransform="matrix(1 0 0 1.1901 0 0)" gradientUnits="userSpaceOnUse" r="47.5316">
      <stop offset="0.7936" stop-color="#FFFFFF" stop-opacity="0"/>
      <stop offset="1" stop-color="#FFFFFF" stop-opacity="0.5"/>
    </radialGradient>
    <radialGradient id="hairHighlights_x5F_white_3_" cx="64.3333" cy="51.475938" gradientTransform="matrix(1 0 0 1.2135 0 0)" gradientUnits="userSpaceOnUse" r="49.788">
      <stop offset="0.7956" stop-color="#FFFFFF" stop-opacity="0"/>
      <stop offset="1" stop-color="#FFFFFF" stop-opacity="0.5"/>
    </radialGradient>
  </defs>
  <path id="hair_x5F_white_1_" d="M64.57,2.87 C23.56,2.87 23.89,40.79 23.89,41.39 C23.89,65.95 25.77,100.64 35.6,114.29 C39.5,119.7 47.03,120 47.03,120 L64,119.98 L80.97,120.01 C80.97,120.01 88.5,119.71 92.4,114.3 C102.23,100.65 104.11,65.96 104.11,41.4 C104.1,40.79 105.58,2.87 64.57,2.87 Z" fill="#D6D6D6"/>
  <path id="hairHighlights_x5F_white_1_" d="M64.57,2.87 C23.56,2.87 23.89,40.79 23.89,41.39 C23.89,65.95 25.77,100.64 35.6,114.29 C39.5,119.7 47.03,120 47.03,120 L64,119.98 L80.97,120.01 C80.97,120.01 88.5,119.71 92.4,114.3 C102.23,100.65 104.11,65.96 104.11,41.4 C104.1,40.79 105.58,2.87 64.57,2.87 Z" fill="url(#hairHighlights_x5F_white_2_)"/>
  <path d="M64.12,94.45 L63.99,94.45 C38.34,94.48 12.53,102 12.53,119.89 L12.53,124.03 L14.03,124.03 L15.53,124.03 L112.46,124.03 L113.95,124.03 L115.46,124.03 L115.46,119.89 C115.46,103.02 89.9,94.45 64.12,94.45 Z" fill="url(#SVGID_1_)"/>
  <path id="neck" d="M73.08,90.08 L54.91,90.08 L54.91,100.06 C54.91,104.57 58.61,108.23 63.17,108.23 L64.82,108.23 C69.38,108.23 73.08,104.57 73.08,100.06 L73.08,90.08 L73.08,90.08 Z" fill="#7A4C32"/>
  <path id="head" d="M64,14.91 C46.8,14.91 30.87,27.7 30.87,54.82 C30.87,76.61 44.36,89.49 56.1,93.65 C58.9,94.64 61.6,95.14 64,95.14 C66.38,95.14 69.07,94.65 71.85,93.67 C83.61,89.53 97.13,76.64 97.13,54.83 C97.13,27.7 81.2,14.91 64,14.91 Z" fill="#A56C43"/>
  <path d="M54.8,49.82 C53.87,48.59 51.73,46.81 47.57,46.81 C43.41,46.81 41.26,48.6 40.34,49.82 C39.93,50.36 40.03,50.99 40.32,51.37 C40.58,51.72 41.36,52.05 42.22,51.76 C43.08,51.47 44.76,50.6 47.57,50.58 C50.38,50.6 52.06,51.47 52.92,51.76 C53.78,52.05 54.56,51.73 54.82,51.37 C55.11,50.99 55.21,50.36 54.8,49.82 Z" fill="#9E9E9E"/>
  <path d="M87.66,49.82 C86.73,48.59 84.59,46.81 80.43,46.81 C76.27,46.81 74.12,48.6 73.2,49.82 C72.79,50.36 72.89,50.99 73.18,51.37 C73.44,51.72 74.22,52.05 75.08,51.76 C75.94,51.47 77.62,50.6 80.43,50.58 C83.24,50.6 84.92,51.47 85.78,51.76 C86.64,52.05 87.42,51.73 87.68,51.37 C87.96,50.99 88.07,50.36 87.66,49.82 Z" fill="#9E9E9E"/>
  <path d="M52.44,58.87 A4.87 5.04 0 1 1 42.7,58.87 A4.87 5.04 0 1 1 52.44,58.87 Z" fill="#42312C"/>
  <path d="M85.3,58.87 A4.87 5.04 0 1 1 75.56,58.87 A4.87 5.04 0 1 1 85.3,58.87 Z" fill="#42312C"/>
  <path id="nose" d="M67.82,68.05 C67.72,68.01 67.61,67.98 67.5,67.97 L60.51,67.97 C60.4,67.98 60.3,68.01 60.19,68.05 C59.56,68.31 59.21,68.96 59.51,69.66 C59.81,70.36 61.2,72.32 64,72.32 C66.8,72.32 68.19,70.36 68.49,69.66 C68.8,68.97 68.45,68.31 67.82,68.05 Z" fill="#875334"/>
  <path id="mouth" d="M72.31,76.14 C69.16,78.01 58.85,78.01 55.7,76.14 C53.89,75.07 52.05,76.71 52.8,78.35 C53.54,79.96 59.17,83.71 64.03,83.71 C68.9,83.71 74.45,79.96 75.19,78.35 C75.94,76.71 74.12,75.06 72.31,76.14 Z" fill="#473530"/>
  <path id="hair_x5F_white" d="M64.57,2.87 C23.56,2.87 23.89,40.79 23.89,41.39 C23.89,49.15 24.08,57.92 24.64,66.71 L31.36,66.69 C31.3,63.77 33.35,45.72 39.44,44.35 C61.8,39.33 74.45,27.46 74.45,27.46 C77.74,34.65 88.03,41.65 91.72,44.32 C94.75,46.51 95.68,62.87 95.62,66.7 L103.33,66.7 C103.33,66.65 103.35,66.6 103.35,66.54 C103.91,57.79 104.09,49.08 104.09,41.37 C104.1,40.79 105.58,2.87 64.57,2.87 Z" fill="#D6D6D6"/>
  <path id="hairHighlights_x5F_white" d="M64.57,2.87 C23.56,2.87 23.89,40.79 23.89,41.39 C23.89,49.15 24.08,57.92 24.64,66.71 L31.36,66.69 C31.3,63.77 33.35,45.72 39.44,44.35 C61.8,39.33 74.45,27.46 74.45,27.46 C77.74,34.65 88.03,41.65 91.72,44.32 C94.75,46.51 95.68,62.87 95.62,66.7 L103.33,66.7 C103.33,66.65 103.35,66.6 103.35,66.54 C103.91,57.79 104.09,49.08 104.09,41.37 C104.1,40.79 105.58,2.87 64.57,2.87 Z" fill="url(#hairHighlights_x5F_white_3_)"/>
</svg>
